X:223
T:Li dous regars de ma dame
C:Adam de la Halle
R:Rondeau
O:XIIIe
M:3/4
L:1/8
Q:1/4=100
K:F 
%%continueall 1
%%maxshrink 0.6
V:1
%%MIDI program 46
e2^f ga2 | a2^g ^fa2 | d2e4 | ^g2e2^f2 | 
a2=g2^f2 | g2^f2e2 | g^fa ^g^f2 | a6 | 
e2^f =ga2 | a2^g ^fa2 | d2e4 | ^g2e2^f2 | 
e2^f =ga2 | a2^g ^fa2 | d2e4 | ^g2e2^f2 | 
e2^f =ga2 | a2^g ^fa2 | d2e4 | ^g2e2^f2 | 
a2=g2^f2 | g2^f2e2 | g^fa ^g=f2 | a6 |]
V:2
%%MIDI program 73
a2a =g/2>^f/2e2 | ed^c =BA=B | G2A2=B2 | ^c2^c2d2 | 
e2A4 | G2=B2^c2 | ded ^c=B2 | A6 | 
a2a g/2>^f/2e2 | ed^c =BA=B | G2A2=B2 | ^c2^c2d2 | 
a2a g/2>^f/2e2 | ed^c =BA=B | G2A2=B2 | ^c2^c2d2 | 
a2a g/2>^f/2e2 | ed^c =BA=B | G2A2=B2 | ^c2^c2d2 | 
e2A4 | G2=B2^c2 | ded ^c=B2 | A6 |]
V:3
%%MIDI program 74
A2A4 | A2^c de2 | g2e2d2 | ^c2A2=B2 | 
A2^c4 | d2=B2A2 | G=Bd4 | e6 | 
A2A4 | A2^c de2 | g2e2d2 | ^c2A2=B2 | 
A2A4 | A2^c de2 | g2e2d2 | ^c2A2=B2 | 
A2A4 | A2^c de2 | g2e2d2 | ^c2A2=B2 | 
A2^c4 | d2=B2A2 | G=Bd4 | e6 |]




%%header "$P0	 $IR 	$P1"
%%footer $D - Éditions Galouvielle - 2009 - À usage librement privé dans le cadre familial

